X: 54
T:Mrs. Elder's Welcome
M:3/4
L:1/4
R:waltz
K:D
A|f2 e|d2 c|Bcd|A2 A|f2 e|d2 c|Bcd|e2 A|f2 e|d2 c|B>cd|Adc|Bed|cfe|d c/d
/ f/e/|d2 :|
|:A|f/f/f A|f/f/fA|faf|d2 A|e/e/eA|e/e/eA|ede|fdA|f2 e|d2 c|Bcd|A2 A|Bed
|cfe|d c/d/ f/c/|d2 :|
